X:0314
M:2/4
L:1/8
Q:1/4=120
K:D
  A<FTE>D  | d>ef>e | d<BAF          |TE>DE :|
  A<F(TE>D)| d>eTfe | d>Bd>F         | E>DE :|
b|a<fTf>e  |Tf>efb  | a<fTf>d        |Te>deb |
  a<ff>e   | d>eTf>e|(d/c/B/A/ d3/)F/| E>DE :|
  A<FE>D   | d>eTf>e| d>BA>F         |TE>DE :|

